X: 1
T: the Montague Processional
C: David Kaynor
R: reel
Z: 2010 John Chambers <jc:trillian.mit.edu>
M: C|
L: 1/8
K: D
|: "D"D3F "(A7)"A2Bc | "D"d6 ef | "Em"g3f e2d2 | "G"B6 ef | "Em"g2fe "A7"a3g |\
| "D"f2d2 "G"g2ag | "D"fafd "A7"egec |1 "D"d2AG "A7"FEDC :|2 "D"d4 "A7"{c}defg ||
|: "D"a3g "(A7)"f2e2 | "D"d6 ef | "Em"g3f e2d2 | "G"B6 ef | "Em"g2fe "A7"a3g |\
| "D"f2d2 "G"g2ag | "D"fafd "A7"egec |1 "D"d4 "A7"{c}defg :|2 H"D"d2AG "A7"FE"d.C."DC |]
